X:780
T:Vienna
C:John Playford, 1686
S:Colin Hume's website,  colinhume.com  - chords can also be printed below the stave.
Q:1/2=112
M:2/2
L:1/8
K:Gm
P:A
|: "Gm"G2G2 G2g2 | "Bb"f2d2 B4 | "Bb"f2d2 "Cm"g2c2 | "D7"(AB)(cA) ^F4 |\
"Gm"B2b2 a2g2 | "D7"(^fg)(af) "Gm"g2a2 | "Bb"f2d2 (de)f2 | "F"(c3 B/c/) "D7"d4 :|
P:B
|: "Gm"d2b2 "D7"a2d2 | "D7"a2ga "Gm"b4 | "Eb"(ba)(gf) "Cm"(ed)(cB) | "Bb"(de)f2 "F"A4 |\
"F"A2 c4 d2 | "Cm"(ed)(cB) "F"f3f | "Gm"g2d2 "Cm"(ed)(cB) | "D7"A4 "Gm"G4 :|

